X: 42698
T: Whistler Of Rosslea, The
R: reel
M: 4/4
K: Edorian
z|EFGA B2AF|BFAF GE~E2|DEFG AFGA|B=cAB GAFG|
EFGE FGAF|B^cdB edBA|GAAG A=cFA|GEFD E3:|
d|e2Be GeBe|~e2fe edB^c|d2Ad FdAd|d^cBA GEDF|
Eeed edBA|GAB^c d3e|edBA GAAG|ADFD E3:|

